; generated by PrusaSlicer 2.9.3 on 2025-09-27 at 16:24:59 UTC

; Standard profile optimized for Ender 3 V2 Neo with Direct Drive

; external perimeters extrusion width = 0.40mm
; perimeters extrusion width = 0.40mm
; infill extrusion width = 0.40mm
; solid infill extrusion width = 0.40mm
; top infill extrusion width = 0.40mm
; support material extrusion width = 0.36mm
; first layer extrusion width = 0.48mm

; external perimeters extrusion width = 0.40mm
; perimeters extrusion width = 0.40mm
; infill extrusion width = 0.40mm
; solid infill extrusion width = 0.40mm
; top infill extrusion width = 0.40mm
; support material extrusion width = 0.36mm
; first layer extrusion width = 0.48mm

; external perimeters extrusion width = 0.40mm
; perimeters extrusion width = 0.40mm
; infill extrusion width = 0.40mm
; solid infill extrusion width = 0.40mm
; top infill extrusion width = 0.40mm
; support material extrusion width = 0.36mm
; first layer extrusion width = 0.48mm

; external perimeters extrusion width = 0.40mm
; perimeters extrusion width = 0.40mm
; infill extrusion width = 0.40mm
; solid infill extrusion width = 0.40mm
; top infill extrusion width = 0.40mm
; support material extrusion width = 0.36mm
; first layer extrusion width = 0.48mm

; external perimeters extrusion width = 0.40mm
; perimeters extrusion width = 0.40mm
; infill extrusion width = 0.40mm
; solid infill extrusion width = 0.40mm
; top infill extrusion width = 0.40mm
; support material extrusion width = 0.36mm
; first layer extrusion width = 0.48mm

; external perimeters extrusion width = 0.40mm
; perimeters extrusion width = 0.40mm
; infill extrusion width = 0.40mm
; solid infill extrusion width = 0.40mm
; top infill extrusion width = 0.40mm
; support material extrusion width = 0.36mm
; first layer extrusion width = 0.48mm

; external perimeters extrusion width = 0.40mm
; perimeters extrusion width = 0.40mm
; infill extrusion width = 0.40mm
; solid infill extrusion width = 0.40mm
; top infill extrusion width = 0.40mm
; support material extrusion width = 0.36mm
; first layer extrusion width = 0.48mm

; external perimeters extrusion width = 0.40mm
; perimeters extrusion width = 0.40mm
; infill extrusion width = 0.40mm
; solid infill extrusion width = 0.40mm
; top infill extrusion width = 0.40mm
; support material extrusion width = 0.36mm
; first layer extrusion width = 0.48mm

M201 X400 Y400 Z100 E3000 ; sets maximum accelerations, mm/sec^2
M203 X400 Y400 Z8 E50 ; sets maximum feedrates, mm / sec
M204 S400 T800 ; sets acceleration (S) and retract acceleration (R), mm/sec^2
M205 X8.00 Y8.00 Z0.30 E5.00 ; sets the jerk limits, mm/sec
M205 S0 T0 ; sets the minimum extruding and travel feed rate, mm/sec

; printing object inner - left id:6 copy 0
; stop printing object inner - left id:6 copy 0
; printing object inner - top id:7 copy 0
; stop printing object inner - top id:7 copy 0
; printing object outer - top id:3 copy 0
; stop printing object outer - top id:3 copy 0
; printing object outer - right id:0 copy 0
; stop printing object outer - right id:0 copy 0
; printing object inner - bottom id:5 copy 0
; stop printing object inner - bottom id:5 copy 0
; printing object outer - left id:2 copy 0
; stop printing object outer - left id:2 copy 0
; printing object inner - right id:4 copy 0
; stop printing object inner - right id:4 copy 0
; printing object outer - bottom id:1 copy 0
; stop printing object outer - bottom id:1 copy 0

;TYPE:Custom
; Start G-Code for Ender 3 V2 Neo DirectDrive - Anti-Misfeed Optimized

G90 ; Absolute positioning
M83 ; Extruder relative positioning

; Preheat sequence
M140 S65 ; Set bed temperature
M104 S160 ; Preheat nozzle to safe temperature
G4 S30 ; Wait for thermal stabilization
G28 ; Home all axes

; Final heating
M104 S210 ; Set nozzle temperature
M190 S65 ; Wait for bed
M109 S210 ; Wait for nozzle

; CRITICAL: Set proper Z height for bed contact
G1 Z0.203 F240 ; Move nozzle to proper first layer height
G92 E0 ; Reset extruder
G1 E-0.5 F300 ; Small retract to prevent oozing
G4 P500 ; Wait for pressure stabilization

; Prime line 1 - Vertical line with proper Z height
G1 X2.0 Y10 Z0.203 F3000 ; Move to start position at bed level
G92 E0
G1 Y80 F600 E12 ; Wider prime line on the bed (doubled extrusion)

; Prime line 2 - Horizontal line
G1 X2.0 Y5 Z0.203 F3000 ; Move to start position at bed level
G92 E0
G1 X40 F600 E8 ; Wider X-direction prime on the bed (doubled extrusion)

; Clean nozzle and prepare for print
G1 E-0.3 F300 ; Gentle retract
G4 P300 ; Stabilization pause
G1 X2 Y2 F3000 ; Wipe corner
G1 E0.2 F150 ; Gentle prime

; Move to print start position and set proper Z for first layer
G1 X5 Y20 Z0.203 F3000 ; Move to start position at first layer height
G92 E0 ; Reset extruder position
G21 ; set units to millimeters
G90 ; use absolute coordinates
M83 ; use relative distances for extrusion
M107
;LAYER_CHANGE
;Z:0.203
;HEIGHT:0.203
G1 E-.5 F1500
G1 Z.303 F480
G1 X18.216 Y18.216 F9000
G1 Z.203 F480
G1 E.5 F1200
M204 S300
;TYPE:Skirt/Brim
;WIDTH:0.48
G1 F1080
G1 X19.966 Y16.466 E.08934
G1 X21.413 Y15.577 E.0613
G1 X22.55 Y15.395 E.04157
G1 X197.45 Y15.395 E6.31344
G1 X199.102 Y15.79 E.06131
G1 X200.034 Y16.466 E.04156
G1 X203.534 Y19.966 E.17867
G1 X204.423 Y21.413 E.0613
G1 X204.605 Y22.55 E.04157
G1 X204.605 Y197.45 E6.31344
G1 X204.21 Y199.102 E.06131
G1 X203.534 Y200.034 E.04156
G1 X200.034 Y203.534 E.17867
G1 X198.587 Y204.423 E.0613
G1 X197.45 Y204.605 E.04157
G1 X22.55 Y204.605 E6.31344
G1 X20.898 Y204.21 E.06131
G1 X19.966 Y203.534 E.04156
G1 X16.466 Y200.034 E.17867
G1 X15.577 Y198.587 E.0613
G1 X15.395 Y197.45 E.04157
G1 X15.395 Y22.55 E6.31344
G1 X15.79 Y20.898 E.06131
G1 X16.466 Y19.966 E.04156
G1 X18.216 Y18.216 E.08934
M204 S400
G1 E-.35 F1500
;WIPE_START
G1 F7200
G1 X18.752 Y17.68 E-.15
;WIPE_END
M204 S800
G1 Z.303 F480
G1 X18.524 Y18.524 F9000
G1 Z.203 F480
G1 E.5 F1200
M204 S300
G1 F1080
G1 X20.274 Y16.774 E.08934
G1 X21.644 Y15.962 E.05749
G1 X22.55 Y15.832 E.03304
G1 X197.45 Y15.832 E6.31344
G1 X198.993 Y16.226 E.05749
G1 X199.726 Y16.774 E.03304
G1 X203.226 Y20.274 E.17867
G1 X204.038 Y21.644 E.05749
G1 X204.168 Y22.55 E.03304
G1 X204.168 Y197.45 E6.31344
G1 X203.774 Y198.993 E.05749
G1 X203.226 Y199.726 E.03304
G1 X199.726 Y203.226 E.17867
G1 X198.356 Y204.038 E.05749
G1 X197.45 Y204.168 E.03304
G1 X22.55 Y204.168 E6.31344
G1 X21.007 Y203.774 E.05749
G1 X20.274 Y203.226 E.03304
G1 X16.774 Y199.726 E.17867
G1 X15.962 Y198.356 E.05749
G1 X15.832 Y197.45 E.03304
G1 X15.832 Y22.55 E6.31344
G1 X16.226 Y21.007 E.05749
G1 X16.774 Y20.274 E.03304
G1 X18.524 Y18.524 E.08934
M204 S400
G1 E-.35 F1500
;WIPE_START
G1 F7200
G1 X19.06 Y17.988 E-.15
;WIPE_END
M204 S800
G1 Z.303 F480
; printing object outer - bottom id:1 copy 0
G1 X23.304 Y19.804 F9000
G1 Z.203 F480
G1 E.5 F1200
M204 S300
;TYPE:Perimeter
;WIDTH:0.435347
G1 F1080
G1 X196.696 Y19.804 E5.61863
G1 X196.696 Y20 E.00635
G1 X196.696 Y20.196 E.00635
G1 X23.304 Y20.196 E5.61863
G1 X23.304 Y19.804 E.0127
M204 S400
G1 E-.5 F1500
M204 S800
G1 Z.303 F480
G1 X22.89 Y19.39 F9000
G1 Z.203 F480
G1 E.5 F1200
M204 S300
;TYPE:External perimeter
;WIDTH:0.479999
G1 F1080
G1 X197.11 Y19.39 E6.28889
G1 X197.11 Y20 E.02202
G1 X197.11 Y20.61 E.02202
G1 X22.89 Y20.61 E6.28889
G1 X22.89 Y19.39 E.04404
M204 S400
G1 E-.35 F1500
;WIPE_START
G1 F7200
G1 X23.648 Y19.39 E-.15
;WIPE_END
M204 S800
G1 Z.303 F480
; stop printing object outer - bottom id:1 copy 0
; printing object inner - bottom id:5 copy 0
G1 X60.804 Y44.804 F9000
G1 Z.203 F480
G1 E.5 F1200
M204 S300
;TYPE:Perimeter
;WIDTH:0.435347
G1 F1080
G1 X159.196 Y44.804 E3.18832
G1 X159.196 Y45 E.00635
G1 X159.196 Y45.196 E.00635
G1 X60.804 Y45.196 E3.18832
G1 X60.804 Y44.804 E.0127
M204 S400
G1 E-.5 F1500
M204 S800
G1 Z.303 F480
G1 X60.39 Y44.39 F9000
G1 Z.203 F480
G1 E.5 F1200
M204 S300
;TYPE:External perimeter
;WIDTH:0.479999
G1 F1080
G1 X159.61 Y44.39 E3.58158
G1 X159.61 Y45 E.02202
G1 X159.61 Y45.61 E.02202
G1 X60.39 Y45.61 E3.58158
G1 X60.39 Y44.39 E.04404
M204 S400
G1 E-.35 F1500
;WIPE_START
G1 F7200
G1 X61.148 Y44.39 E-.15
;WIPE_END
M204 S800
G1 Z.303 F480
; stop printing object inner - bottom id:5 copy 0
; printing object inner - left id:6 copy 0
G1 X45.196 Y60.804 F9000
G1 Z.203 F480
G1 E.5 F1200
M204 S300
;TYPE:Perimeter
;WIDTH:0.435347
G1 F1080
G1 X45.196 Y61 E.00635
G1 X45.196 Y159.196 E3.18197
G1 X44.804 Y159.196 E.0127
G1 X44.804 Y60.804 E3.18832
G1 X45.196 Y60.804 E.0127
M204 S400
G1 E-.5 F1500
M204 S800
G1 Z.303 F480
G1 X45.61 Y60.39 F9000
G1 Z.203 F480
G1 E.5 F1200
M204 S300
;TYPE:External perimeter
;WIDTH:0.479999
G1 F1080
G1 X45.61 Y61 E.02202
G1 X45.61 Y159.61 E3.55956
G1 X44.39 Y159.61 E.04404
G1 X44.39 Y60.39 E3.58158
G1 X45.61 Y60.39 E.04404
M204 S400
G1 E-.35 F1500
;WIPE_START
G1 F7200
G1 X45.61 Y61 E-.12073
G1 X45.61 Y61.148 E-.02927
;WIPE_END
M204 S800
G1 Z.303 F480
; stop printing object inner - left id:6 copy 0
; printing object outer - left id:2 copy 0
G1 X20.196 Y23.304 F9000
G1 Z.203 F480
G1 E.5 F1200
M204 S300
;TYPE:Perimeter
;WIDTH:0.435347
G1 F1080
G1 X20.196 Y23.5 E.00635
G1 X20.196 Y196.696 E5.61228
G1 X19.804 Y196.696 E.0127
G1 X19.804 Y23.304 E5.61863
G1 X20.196 Y23.304 E.0127
M204 S400
G1 E-.5 F1500
M204 S800
G1 Z.303 F480
G1 X20.61 Y22.89 F9000
G1 Z.203 F480
G1 E.5 F1200
M204 S300
;TYPE:External perimeter
;WIDTH:0.479999
G1 F1080
G1 X20.61 Y23.5 E.02202
G1 X20.61 Y197.11 E6.26687
G1 X19.39 Y197.11 E.04404
G1 X19.39 Y22.89 E6.28889
G1 X20.61 Y22.89 E.04404
M204 S400
G1 E-.35 F1500
;WIPE_START
G1 F7200
G1 X20.61 Y23.5 E-.12073
G1 X20.61 Y23.648 E-.02927
;WIPE_END
M204 S800
G1 Z.303 F480
; stop printing object outer - left id:2 copy 0
; printing object outer - top id:3 copy 0
G1 X23.304 Y199.804 F9000
G1 Z.203 F480
G1 E.5 F1200
M204 S300
;TYPE:Perimeter
;WIDTH:0.435347
G1 F1080
G1 X196.696 Y199.804 E5.61863
G1 X196.696 Y200 E.00635
G1 X196.696 Y200.196 E.00635
G1 X23.304 Y200.196 E5.61863
G1 X23.304 Y199.804 E.0127
M204 S400
G1 E-.5 F1500
M204 S800
G1 Z.303 F480
G1 X22.89 Y199.39 F9000
G1 Z.203 F480
G1 E.5 F1200
M204 S300
;TYPE:External perimeter
;WIDTH:0.479999
G1 F1080
G1 X197.11 Y199.39 E6.28889
G1 X197.11 Y200 E.02202
G1 X197.11 Y200.61 E.02202
G1 X22.89 Y200.61 E6.28889
G1 X22.89 Y199.39 E.04404
M204 S400
G1 E-.35 F1500
;WIPE_START
G1 F7200
G1 X23.648 Y199.39 E-.15
;WIPE_END
M204 S800
G1 Z.303 F480
; stop printing object outer - top id:3 copy 0
; printing object inner - top id:7 copy 0
G1 X60.804 Y175.196 F9000
G1 Z.203 F480
G1 E.5 F1200
M204 S300
;TYPE:Perimeter
;WIDTH:0.435347
G1 F1080
G1 X60.804 Y174.804 E.0127
G1 X159.196 Y174.804 E3.18832
G1 X159.196 Y175 E.00635
G1 X159.196 Y175.196 E.00635
G1 X60.804 Y175.196 E3.18832
M204 S400
G1 E-.5 F1500
M204 S800
G1 Z.303 F480
G1 X60.39 Y175.61 F9000
G1 Z.203 F480
G1 E.5 F1200
M204 S300
;TYPE:External perimeter
;WIDTH:0.479999
G1 F1080
G1 X60.39 Y174.39 E.04404
G1 X159.61 Y174.39 E3.58158
G1 X159.61 Y175 E.02202
G1 X159.61 Y175.61 E.02202
G1 X60.39 Y175.61 E3.58158
M204 S400
G1 E-.35 F1500
;WIPE_START
G1 F7200
G1 X60.39 Y174.852 E-.15
;WIPE_END
M204 S800
G1 Z.303 F480
; stop printing object inner - top id:7 copy 0
; printing object inner - right id:4 copy 0
G1 X174.804 Y159.196 F9000
G1 Z.203 F480
G1 E.5 F1200
M204 S300
;TYPE:Perimeter
;WIDTH:0.435347
G1 F1080
G1 X174.804 Y60.804 E3.18832
G1 X175.196 Y60.804 E.0127
G1 X175.196 Y61 E.00635
G1 X175.196 Y159.196 E3.18197
G1 X174.804 Y159.196 E.0127
M204 S400
G1 E-.5 F1500
M204 S800
G1 Z.303 F480
G1 X174.39 Y159.61 F9000
G1 Z.203 F480
G1 E.5 F1200
M204 S300
;TYPE:External perimeter
;WIDTH:0.479999
G1 F1080
G1 X174.39 Y60.39 E3.58158
G1 X175.61 Y60.39 E.04404
G1 X175.61 Y61 E.02202
G1 X175.61 Y159.61 E3.55956
G1 X174.39 Y159.61 E.04404
M204 S400
G1 E-.35 F1500
;WIPE_START
G1 F7200
G1 X174.39 Y158.852 E-.15
;WIPE_END
M204 S800
G1 Z.303 F480
; stop printing object inner - right id:4 copy 0
; printing object outer - right id:0 copy 0
G1 X199.804 Y196.696 F9000
G1 Z.203 F480
G1 E.5 F1200
M204 S300
;TYPE:Perimeter
;WIDTH:0.435347
G1 F1080
G1 X199.804 Y23.304 E5.61863
G1 X200.196 Y23.304 E.0127
G1 X200.196 Y23.5 E.00635
G1 X200.196 Y196.696 E5.61228
G1 X199.804 Y196.696 E.0127
M204 S400
G1 E-.5 F1500
M204 S800
G1 Z.303 F480
G1 X199.39 Y197.11 F9000
G1 Z.203 F480
G1 E.5 F1200
M204 S300
;TYPE:External perimeter
;WIDTH:0.479999
G1 F1080
G1 X199.39 Y22.89 E6.28889
G1 X200.61 Y22.89 E.04404
G1 X200.61 Y23.5 E.02202
G1 X200.61 Y197.11 E6.26687
G1 X199.39 Y197.11 E.04404
M204 S400
M106 S255
;LAYER_CHANGE
;Z:0.403
;HEIGHT:0.2
;BEFORE_LAYER_CHANGE
G92 E0
;0.403


G1 E-.35 F1500
;WIPE_START
G1 F7200
G1 X199.39 Y196.352 E-.15
;WIPE_END
G1 Z.403 F480
;AFTER_LAYER_CHANGE
;0.403
M104 S205 ; set temperature
M140 S60 ; set bed temperature
; stop printing object outer - right id:0 copy 0
M204 S800
G1 Z.503
G1 X202.924 Y200.644 F9000
G1 Z.403 F480
G1 E.5 F1200
M204 S400
;TYPE:Skirt/Brim
;WIDTH:0.48
G1 F2400
G1 X200.034 Y203.534 E.14557
G1 X198.587 Y204.423 E.06049
G1 X197.45 Y204.605 E.04101
G1 X22.55 Y204.605 E6.22932
G1 X20.898 Y204.21 E.0605
G1 X19.966 Y203.534 E.04101
G1 X16.466 Y200.034 E.17629
G1 X15.577 Y198.587 E.06049
G1 X15.395 Y197.45 E.04101
G1 X15.395 Y22.55 E6.22932
G1 X15.79 Y20.898 E.0605
G1 X16.466 Y19.966 E.04101
G1 X19.966 Y16.466 E.17629
G1 X21.413 Y15.577 E.06049
G1 X22.55 Y15.395 E.04101
G1 X197.45 Y15.395 E6.22932
G1 X199.102 Y15.79 E.0605
G1 X200.034 Y16.466 E.04101
G1 X203.534 Y19.966 E.17629
G1 X204.423 Y21.413 E.06049
G1 X204.605 Y22.55 E.04101
G1 X204.605 Y197.45 E6.22932
G1 X204.21 Y199.102 E.0605
G1 X203.534 Y200.034 E.04101
G1 X202.924 Y200.644 E.03073
G1 E-.35 F1500
;WIPE_START
G1 F7200
G1 X202.388 Y201.18 E-.15
;WIPE_END
M204 S800
G1 Z.503 F480
G1 X202.616 Y200.336 F9000
G1 Z.403 F480
G1 E.5 F1200
M204 S400
G1 F2400
G1 X199.726 Y203.226 E.14557
G1 X198.356 Y204.038 E.05672
G1 X197.45 Y204.168 E.0326
G1 X22.55 Y204.168 E6.22932
G1 X21.007 Y203.774 E.05672
G1 X20.274 Y203.226 E.0326
G1 X16.774 Y199.726 E.17629
G1 X15.962 Y198.356 E.05672
G1 X15.832 Y197.45 E.0326
G1 X15.832 Y22.55 E6.22932
G1 X16.226 Y21.007 E.05672
G1 X16.774 Y20.274 E.0326
G1 X20.274 Y16.774 E.17629
G1 X21.644 Y15.962 E.05672
G1 X22.55 Y15.832 E.0326
G1 X197.45 Y15.832 E6.22932
G1 X198.993 Y16.226 E.05672
G1 X199.726 Y16.774 E.0326
G1 X203.226 Y20.274 E.17629
G1 X204.038 Y21.644 E.05672
G1 X204.168 Y22.55 E.0326
G1 X204.168 Y197.45 E6.22932
G1 X203.774 Y198.993 E.05672
G1 X203.226 Y199.726 E.0326
G1 X202.616 Y200.336 E.03073
G1 E-.35 F1500
;WIPE_START
G1 F7200
G1 X202.08 Y200.872 E-.15
;WIPE_END
M204 S800
G1 Z.503 F480
G1 X196.513 Y20.414 F9000
G1 X196.5 Y20.414
; printing object outer - bottom id:1 copy 0
G1 X196.5 Y20
G1 Z.403 F480
G1 E.5 F1200
M204 S350
;TYPE:Perimeter
;WIDTH:0.471682
G1 F2100
G1 X23.5 Y20 E6.04439
M204 S400
M204 S800
G1 X23.107 Y20.393 F9000
M204 S350
;WIDTH:0.399999
G1 F2100
G1 X23.107 Y19.607 E.02287
G1 X196.893 Y19.607 E5.05672
G1 X196.893 Y20 E.01144
G1 X196.893 Y20.393 E.01144
G1 X23.107 Y20.393 E5.05672
M204 S400
M204 S800
G1 X22.75 Y20.75 F9000
M204 S300
;TYPE:External perimeter
G1 F1500
G1 X22.75 Y19.25 E.04365
G1 X197.25 Y19.25 E5.0775
G1 X197.25 Y20 E.02182
G1 X197.25 Y20.75 E.02182
G1 X22.75 Y20.75 E5.0775
M204 S400
G1 E-.35
;WIPE_START
G1 F7200
G1 X22.75 Y19.992 E-.15
;WIPE_END
M204 S800
G1 Z.503 F480
; stop printing object outer - bottom id:1 copy 0
; printing object inner - bottom id:5 copy 0
G1 X159 Y45 F9000
G1 Z.403 F480
G1 E.5 F1200
M204 S350
;TYPE:Perimeter
;WIDTH:0.471684
G1 F2100
G1 X61 Y45 E3.42401
M204 S400
M204 S800
G1 X60.607 Y45.393 F9000
M204 S350
;WIDTH:0.399999
G1 F2100
G1 X60.607 Y44.607 E.02287
G1 X159.393 Y44.607 E2.87442
G1 X159.393 Y45 E.01144
G1 X159.393 Y45.393 E.01144
G1 X60.607 Y45.393 E2.87442
M204 S400
M204 S800
G1 X60.25 Y45.75 F9000
M204 S300
;TYPE:External perimeter
G1 F1500
G1 X60.25 Y44.25 E.04365
G1 X159.75 Y44.25 E2.89519
G1 X159.75 Y45 E.02182
G1 X159.75 Y45.75 E.02182
G1 X60.25 Y45.75 E2.89519
M204 S400
G1 E-.35
;WIPE_START
G1 F7200
G1 X60.25 Y44.992 E-.15
;WIPE_END
M204 S800
G1 Z.503 F480
